%
(1001)
(T2  D=10. CR=0. - ZMIN=-52. - flat end mill)
G90 G54 G64 G50 G17 G40 G80 G94 G49
G21 (Metric)
G30

N10(2D Contour3)
T2 M6
G43 H2
S7000 M3 M9
G54
G0 C0.
G0 X4.011 Y621.092
G0 Z15.
G0 Z5.
G1 Z3.5 F2240.
G1 X4.019 Z3.379
G1 X4.04 Z3.261
G1 X4.076 Z3.145
G1 X4.126 Z3.035
G1 X4.188 Z2.932
G1 X4.263 Z2.837
G1 X4.348 Z2.751
G1 X4.443 Z2.677
G1 X4.547 Z2.615
G1 X4.657 Z2.565
G1 X4.772 Z2.529
G1 X4.891 Z2.507
G1 X5.011 Z2.5
G1 X6.011
G3 X7.011 Y622.092 I0. J1.
G1 Y796.374 Z2.058
G2 X9.267 Y803.377 Z2.039 I12. J0.
G2 X11.706 Y805.189 Z2.031 I4.06 J-2.918
G1 X19.461 Y807.847 Z2.01
G1 Y827.502 Z1.96
G2 X29.461 Y837.502 Z1.921 I10. J0.
G1 X36.91 Z1.902
G2 X41.91 Y832.502 Z1.882 I0. J-5.
G2 X46.91 Y837.502 Z1.862 I5. J0.
G1 X54.874 Z1.842
G2 X64.873 Y827.658 Z1.802 I0. J-10.
G1 X69.033 Y561.346 Z1.126
G1 X73.172 Y402.666 Z0.724
G3 X73.937 Y399.081 Z0.714 I9.997 J0.261
G1 X80.569 Y383.164 Z0.671
G3 X82.639 Y380.03 Z0.661 I9.232 J3.846
G1 X101.566 Y363.004 Z0.597
G1 X131.778 Y354.6 Z0.517
G2 X137.811 Y351.937 Z0.5 I-0.797 J-9.968
G1 X142.085 Y348.552 Z0.486
G2 X143.981 Y344.632 Z0.475 I-3.104 J-3.92
G1 Y332.994 Z0.445
G2 X143.303 Y328.691 Z0.434 I-14. J0.001
G1 X133.547 Y298.483 Z0.353
G2 X123.158 Y289.097 Z0.316 I-13.322 J4.303
G1 X116.294 Y287.626 Z0.298
G1 X116.203 Y284.735 Z0.291
G1 X162.977 Y57.851 Z-0.297
G2 X163.08 Y56.844 Z-0.299 I-4.897 J-1.01
G1 X163.09 Y32.506 Z-0.361
G2 X143.09 Y12.498 Z-0.441 I-20. J-0.008
G1 X47.16 Z-0.684
G2 X42.16 Y17.498 Z-0.704 I0. J5.
G1 Y27.498 Z-0.729
G3 X41.66 Z-0.731 I-0.25 J0.
G1 Y17.498 Z-0.757
G2 X36.66 Y12.498 Z-0.777 I-5. J0.
G1 X1.91 Z-0.865
G2 X-3.09 Y17.498 Z-0.885 I0. J5.
G1 Y41.508 Z-0.945
G2 X16.911 Y61.508 Z-1.025 I20. J0.
G1 X19.095 Z-1.031
G3 X24.095 Y66.508 Z-1.051 I0. J5.
G1 Y307.028 Z-1.661
G2 X33.828 Y321.415 Z-1.708 I15.5 J0.
G1 X36.91 Y322.651 Z-1.716
G1 Y346.992 Z-1.778
G1 X11.081 Y381.021 Z-1.886
G2 X7.011 Y393.113 Z-1.919 I15.931 J12.092
G1 Y796.374 Z-2.942
G2 X9.267 Y803.377 Z-2.961 I12. J0.
G2 X11.706 Y805.189 Z-2.969 I4.06 J-2.918
G1 X19.461 Y807.847 Z-2.99
G1 Y827.502 Z-3.04
G2 X29.461 Y837.502 Z-3.079 I10. J0.
G1 X36.91 Z-3.098
G2 X41.91 Y832.502 Z-3.118 I0. J-5.
G2 X46.91 Y837.502 Z-3.138 I5. J0.
G1 X54.874 Z-3.158
G2 X64.873 Y827.658 Z-3.198 I0. J-10.
G1 X69.033 Y561.346 Z-3.874
G1 X73.172 Y402.666 Z-4.276
G3 X73.937 Y399.081 Z-4.286 I9.997 J0.261
G1 X80.569 Y383.164 Z-4.329
G3 X82.639 Y380.03 Z-4.339 I9.232 J3.846
G1 X101.566 Y363.004 Z-4.403
G1 X131.778 Y354.6 Z-4.483
G2 X137.811 Y351.937 Z-4.5 I-0.797 J-9.968
G1 X142.085 Y348.552 Z-4.514
G2 X143.981 Y344.632 Z-4.525 I-3.104 J-3.92
G1 Y332.994 Z-4.555
G2 X143.303 Y328.691 Z-4.566 I-14. J0.001
G1 X133.547 Y298.483 Z-4.647
G2 X123.158 Y289.097 Z-4.684 I-13.322 J4.303
G1 X116.294 Y287.626 Z-4.702
G1 X116.203 Y284.735 Z-4.709
G1 X162.977 Y57.851 Z-5.297
G2 X163.08 Y56.844 Z-5.299 I-4.897 J-1.01
G1 X163.09 Y32.506 Z-5.361
G2 X143.09 Y12.498 Z-5.441 I-20. J-0.008
G1 X47.16 Z-5.684
G2 X42.16 Y17.498 Z-5.704 I0. J5.
G1 Y27.498 Z-5.729
G3 X41.66 Z-5.731 I-0.25 J0.
G1 Y17.498 Z-5.757
G2 X36.66 Y12.498 Z-5.777 I-5. J0.
G1 X1.91 Z-5.865
G2 X-3.09 Y17.498 Z-5.885 I0. J5.
G1 Y41.508 Z-5.945
G2 X16.911 Y61.508 Z-6.025 I20. J0.
G1 X19.095 Z-6.031
G3 X24.095 Y66.508 Z-6.051 I0. J5.
G1 Y307.028 Z-6.661
G2 X33.828 Y321.415 Z-6.708 I15.5 J0.
G1 X36.91 Y322.651 Z-6.716
G1 Y346.992 Z-6.778
G1 X11.081 Y381.021 Z-6.886
G2 X7.011 Y393.113 Z-6.919 I15.931 J12.092
G1 Y796.374 Z-7.942
G2 X9.267 Y803.377 Z-7.961 I12. J0.
G2 X11.706 Y805.189 Z-7.969 I4.06 J-2.918
G1 X19.461 Y807.847 Z-7.99
G1 Y827.502 Z-8.04
G2 X29.461 Y837.502 Z-8.079 I10. J0.
G1 X36.91 Z-8.098
G2 X41.91 Y832.502 Z-8.118 I0. J-5.
G2 X46.91 Y837.502 Z-8.138 I5. J0.
G1 X54.874 Z-8.158
G2 X64.873 Y827.658 Z-8.198 I0. J-10.
G1 X69.033 Y561.346 Z-8.874
G1 X73.172 Y402.666 Z-9.276
G3 X73.937 Y399.081 Z-9.286 I9.997 J0.261
G1 X80.569 Y383.164 Z-9.329
G3 X82.639 Y380.03 Z-9.339 I9.232 J3.846
G1 X101.566 Y363.004 Z-9.403
G1 X131.778 Y354.6 Z-9.483
G2 X137.811 Y351.937 Z-9.5 I-0.797 J-9.968
G1 X142.085 Y348.552 Z-9.514
G2 X143.981 Y344.632 Z-9.525 I-3.104 J-3.92
G1 Y332.994 Z-9.555
G2 X143.303 Y328.691 Z-9.566 I-14. J0.001
G1 X133.547 Y298.483 Z-9.647
G2 X123.158 Y289.097 Z-9.684 I-13.322 J4.303
G1 X116.294 Y287.626 Z-9.702
G1 X116.203 Y284.735 Z-9.709
G1 X162.977 Y57.851 Z-10.297
G2 X163.08 Y56.844 Z-10.299 I-4.897 J-1.01
G1 X163.09 Y32.506 Z-10.361
G2 X143.09 Y12.498 Z-10.441 I-20. J-0.008
G1 X47.16 Z-10.684
G2 X42.16 Y17.498 Z-10.704 I0. J5.
G1 Y27.498 Z-10.729
G3 X41.66 Z-10.731 I-0.25 J0.
G1 Y17.498 Z-10.757
G2 X36.66 Y12.498 Z-10.777 I-5. J0.
G1 X1.91 Z-10.865
G2 X-3.09 Y17.498 Z-10.885 I0. J5.
G1 Y41.508 Z-10.945
G2 X16.911 Y61.508 Z-11.025 I20. J0.
G1 X19.095 Z-11.031
G3 X24.095 Y66.508 Z-11.051 I0. J5.
G1 Y307.028 Z-11.661
G2 X33.828 Y321.415 Z-11.708 I15.5 J0.
G1 X36.91 Y322.651 Z-11.716
G1 Y346.992 Z-11.778
G1 X11.081 Y381.021 Z-11.886
G2 X7.011 Y393.113 Z-11.919 I15.931 J12.092
G1 Y796.374 Z-12.942
G2 X9.267 Y803.377 Z-12.961 I12. J0.
G2 X11.706 Y805.189 Z-12.969 I4.06 J-2.918
G1 X19.461 Y807.847 Z-12.99
G1 Y827.502 Z-13.04
G2 X29.461 Y837.502 Z-13.079 I10. J0.
G1 X36.91 Z-13.098
G2 X41.91 Y832.502 Z-13.118 I0. J-5.
G2 X46.91 Y837.502 Z-13.138 I5. J0.
G1 X54.874 Z-13.158
G2 X64.873 Y827.658 Z-13.198 I0. J-10.
G1 X69.033 Y561.346 Z-13.874
G1 X73.172 Y402.666 Z-14.276
G3 X73.937 Y399.081 Z-14.286 I9.997 J0.261
G1 X80.569 Y383.164 Z-14.329
G3 X82.639 Y380.03 Z-14.339 I9.232 J3.846
G1 X101.566 Y363.004 Z-14.403
G1 X131.778 Y354.6 Z-14.483
G2 X137.811 Y351.937 Z-14.5 I-0.797 J-9.968
G1 X142.085 Y348.552 Z-14.514
G2 X143.981 Y344.632 Z-14.525 I-3.104 J-3.92
G1 Y332.994 Z-14.555
G2 X143.303 Y328.691 Z-14.566 I-14. J0.001
G1 X133.547 Y298.483 Z-14.647
G2 X123.158 Y289.097 Z-14.684 I-13.322 J4.303
G1 X116.294 Y287.626 Z-14.702
G1 X116.203 Y284.735 Z-14.709
G1 X162.977 Y57.851 Z-15.297
G2 X163.08 Y56.844 Z-15.299 I-4.897 J-1.01
G1 X163.09 Y32.506 Z-15.361
G2 X143.09 Y12.498 Z-15.441 I-20. J-0.008
G1 X47.16 Z-15.684
G2 X42.16 Y17.498 Z-15.704 I0. J5.
G1 Y27.498 Z-15.729
G3 X41.66 Z-15.731 I-0.25 J0.
G1 Y17.498 Z-15.757
G2 X36.66 Y12.498 Z-15.777 I-5. J0.
G1 X1.91 Z-15.865
G2 X-3.09 Y17.498 Z-15.885 I0. J5.
G1 Y41.508 Z-15.945
G2 X16.911 Y61.508 Z-16.025 I20. J0.
G1 X19.095 Z-16.031
G3 X24.095 Y66.508 Z-16.051 I0. J5.
G1 Y307.028 Z-16.661
G2 X33.828 Y321.415 Z-16.708 I15.5 J0.
G1 X36.91 Y322.651 Z-16.716
G1 Y346.992 Z-16.778
G1 X11.081 Y381.021 Z-16.886
G2 X7.011 Y393.113 Z-16.919 I15.931 J12.092
G1 Y796.374 Z-17.942
G2 X9.267 Y803.377 Z-17.961 I12. J0.
G2 X11.706 Y805.189 Z-17.969 I4.06 J-2.918
G1 X19.461 Y807.847 Z-17.99
G1 Y827.502 Z-18.04
G2 X29.461 Y837.502 Z-18.079 I10. J0.
G1 X36.91 Z-18.098
G2 X41.91 Y832.502 Z-18.118 I0. J-5.
G2 X46.91 Y837.502 Z-18.138 I5. J0.
G1 X54.874 Z-18.158
G2 X64.873 Y827.658 Z-18.198 I0. J-10.
G1 X69.033 Y561.346 Z-18.874
G1 X73.172 Y402.666 Z-19.276
G3 X73.937 Y399.081 Z-19.286 I9.997 J0.261
G1 X80.569 Y383.164 Z-19.329
G3 X82.639 Y380.03 Z-19.339 I9.232 J3.846
G1 X101.566 Y363.004 Z-19.403
G1 X131.778 Y354.6 Z-19.483
G2 X137.811 Y351.937 Z-19.5 I-0.797 J-9.968
G1 X142.085 Y348.552 Z-19.514
G2 X143.981 Y344.632 Z-19.525 I-3.104 J-3.92
G1 Y332.994 Z-19.555
G2 X143.303 Y328.691 Z-19.566 I-14. J0.001
G1 X133.547 Y298.483 Z-19.647
G2 X123.158 Y289.097 Z-19.684 I-13.322 J4.303
G1 X116.294 Y287.626 Z-19.702
G1 X116.203 Y284.735 Z-19.709
G1 X162.977 Y57.851 Z-20.297
G2 X163.08 Y56.844 Z-20.299 I-4.897 J-1.01
G1 X163.09 Y32.506 Z-20.361
G2 X143.09 Y12.498 Z-20.441 I-20. J-0.008
G1 X47.16 Z-20.684
G2 X42.16 Y17.498 Z-20.704 I0. J5.
G1 Y27.498 Z-20.729
G3 X41.66 Z-20.731 I-0.25 J0.
G1 Y17.498 Z-20.757
G2 X36.66 Y12.498 Z-20.777 I-5. J0.
G1 X1.91 Z-20.865
G2 X-3.09 Y17.498 Z-20.885 I0. J5.
G1 Y41.508 Z-20.945
G2 X16.911 Y61.508 Z-21.025 I20. J0.
G1 X19.095 Z-21.031
G3 X24.095 Y66.508 Z-21.051 I0. J5.
G1 Y307.028 Z-21.661
G2 X33.828 Y321.415 Z-21.708 I15.5 J0.
G1 X36.91 Y322.651 Z-21.716
G1 Y346.992 Z-21.778
G1 X11.081 Y381.021 Z-21.886
G2 X7.011 Y393.113 Z-21.919 I15.931 J12.092
G1 Y796.374 Z-22.942
G2 X9.267 Y803.377 Z-22.961 I12. J0.
G2 X11.706 Y805.189 Z-22.969 I4.06 J-2.918
G1 X19.461 Y807.847 Z-22.99
G1 Y827.502 Z-23.04
G2 X29.461 Y837.502 Z-23.079 I10. J0.
G1 X36.91 Z-23.098
G2 X41.91 Y832.502 Z-23.118 I0. J-5.
G2 X46.91 Y837.502 Z-23.138 I5. J0.
G1 X54.874 Z-23.158
G2 X64.873 Y827.658 Z-23.198 I0. J-10.
G1 X69.033 Y561.346 Z-23.874
G1 X73.172 Y402.666 Z-24.276
G3 X73.937 Y399.081 Z-24.286 I9.997 J0.261
G1 X80.569 Y383.164 Z-24.329
G3 X82.639 Y380.03 Z-24.339 I9.232 J3.846
G1 X101.566 Y363.004 Z-24.403
G1 X131.778 Y354.6 Z-24.483
G2 X137.811 Y351.937 Z-24.5 I-0.797 J-9.968
G1 X142.085 Y348.552 Z-24.514
G2 X143.981 Y344.632 Z-24.525 I-3.104 J-3.92
G1 Y332.994 Z-24.555
G2 X143.303 Y328.691 Z-24.566 I-14. J0.001
G1 X133.547 Y298.483 Z-24.647
G2 X123.158 Y289.097 Z-24.684 I-13.322 J4.303
G1 X116.294 Y287.626 Z-24.702
G1 X116.203 Y284.735 Z-24.709
G1 X162.977 Y57.851 Z-25.297
G2 X163.08 Y56.844 Z-25.299 I-4.897 J-1.01
G1 X163.09 Y32.506 Z-25.361
G2 X143.09 Y12.498 Z-25.441 I-20. J-0.008
G1 X47.16 Z-25.684
G2 X42.16 Y17.498 Z-25.704 I0. J5.
G1 Y27.498 Z-25.729
G3 X41.66 Z-25.731 I-0.25 J0.
G1 Y17.498 Z-25.757
G2 X36.66 Y12.498 Z-25.777 I-5. J0.
G1 X1.91 Z-25.865
G2 X-3.09 Y17.498 Z-25.885 I0. J5.
G1 Y41.508 Z-25.945
G2 X16.911 Y61.508 Z-26.025 I20. J0.
G1 X19.095 Z-26.031
G3 X24.095 Y66.508 Z-26.051 I0. J5.
G1 Y307.028 Z-26.661
G2 X33.828 Y321.415 Z-26.708 I15.5 J0.
G1 X36.91 Y322.651 Z-26.716
G1 Y346.992 Z-26.778
G1 X11.081 Y381.021 Z-26.886
G2 X7.011 Y393.113 Z-26.919 I15.931 J12.092
G1 Y796.374 Z-27.942
G2 X9.267 Y803.377 Z-27.961 I12. J0.
G2 X11.706 Y805.189 Z-27.969 I4.06 J-2.918
G1 X19.461 Y807.847 Z-27.99
G1 Y827.502 Z-28.04
G2 X29.461 Y837.502 Z-28.079 I10. J0.
G1 X36.91 Z-28.098
G2 X41.91 Y832.502 Z-28.118 I0. J-5.
G2 X46.91 Y837.502 Z-28.138 I5. J0.
G1 X54.874 Z-28.158
G2 X64.873 Y827.658 Z-28.198 I0. J-10.
G1 X69.033 Y561.346 Z-28.874
G1 X73.172 Y402.666 Z-29.276
G3 X73.937 Y399.081 Z-29.286 I9.997 J0.261
G1 X80.569 Y383.164 Z-29.329
G3 X82.639 Y380.03 Z-29.339 I9.232 J3.846
G1 X101.566 Y363.004 Z-29.403
G1 X131.778 Y354.6 Z-29.483
G2 X137.811 Y351.937 Z-29.5 I-0.797 J-9.968
G1 X142.085 Y348.552 Z-29.514
G2 X143.981 Y344.632 Z-29.525 I-3.104 J-3.92
G1 Y332.994 Z-29.555
G2 X143.303 Y328.691 Z-29.566 I-14. J0.001
G1 X133.547 Y298.483 Z-29.647
G2 X123.158 Y289.097 Z-29.684 I-13.322 J4.303
G1 X116.294 Y287.626 Z-29.702
G1 X116.203 Y284.735 Z-29.709
G1 X162.977 Y57.851 Z-30.297
G2 X163.08 Y56.844 Z-30.299 I-4.897 J-1.01
G1 X163.09 Y32.506 Z-30.361
G2 X143.09 Y12.498 Z-30.441 I-20. J-0.008
G1 X47.16 Z-30.684
G2 X42.16 Y17.498 Z-30.704 I0. J5.
G1 Y27.498 Z-30.729
G3 X41.66 Z-30.731 I-0.25 J0.
G1 Y17.498 Z-30.757
G2 X36.66 Y12.498 Z-30.777 I-5. J0.
G1 X1.91 Z-30.865
G2 X-3.09 Y17.498 Z-30.885 I0. J5.
G1 Y41.508 Z-30.945
G2 X16.911 Y61.508 Z-31.025 I20. J0.
G1 X19.095 Z-31.031
G3 X24.095 Y66.508 Z-31.051 I0. J5.
G1 Y307.028 Z-31.661
G2 X33.828 Y321.415 Z-31.708 I15.5 J0.
G1 X36.91 Y322.651 Z-31.716
G1 Y346.992 Z-31.778
G1 X11.081 Y381.021 Z-31.886
G2 X7.011 Y393.113 Z-31.919 I15.931 J12.092
G1 Y796.374 Z-32.942
G2 X9.267 Y803.377 Z-32.961 I12. J0.
G2 X11.706 Y805.189 Z-32.969 I4.06 J-2.918
G1 X19.461 Y807.847 Z-32.99
G1 Y827.502 Z-33.04
G2 X29.461 Y837.502 Z-33.079 I10. J0.
G1 X36.91 Z-33.098
G2 X41.91 Y832.502 Z-33.118 I0. J-5.
G2 X46.91 Y837.502 Z-33.138 I5. J0.
G1 X54.874 Z-33.158
G2 X64.873 Y827.658 Z-33.198 I0. J-10.
G1 X69.033 Y561.346 Z-33.874
G1 X73.172 Y402.666 Z-34.276
G3 X73.937 Y399.081 Z-34.286 I9.997 J0.261
G1 X80.569 Y383.164 Z-34.329
G3 X82.639 Y380.03 Z-34.339 I9.232 J3.846
G1 X101.566 Y363.004 Z-34.403
G1 X131.778 Y354.6 Z-34.483
G2 X137.811 Y351.937 Z-34.5 I-0.797 J-9.968
G1 X142.085 Y348.552 Z-34.514
G2 X143.981 Y344.632 Z-34.525 I-3.104 J-3.92
G1 Y332.994 Z-34.555
G2 X143.303 Y328.691 Z-34.566 I-14. J0.001
G1 X133.547 Y298.483 Z-34.647
G2 X123.158 Y289.097 Z-34.684 I-13.322 J4.303
G1 X116.294 Y287.626 Z-34.702
G1 X116.203 Y284.735 Z-34.709
G1 X162.977 Y57.851 Z-35.297
G2 X163.08 Y56.844 Z-35.299 I-4.897 J-1.01
G1 X163.09 Y32.506 Z-35.361
G2 X143.09 Y12.498 Z-35.441 I-20. J-0.008
G1 X47.16 Z-35.684
G2 X42.16 Y17.498 Z-35.704 I0. J5.
G1 Y27.498 Z-35.729
G3 X41.66 Z-35.731 I-0.25 J0.
G1 Y17.498 Z-35.757
G2 X36.66 Y12.498 Z-35.777 I-5. J0.
G1 X1.91 Z-35.865
G2 X-3.09 Y17.498 Z-35.885 I0. J5.
G1 Y41.508 Z-35.945
G2 X16.911 Y61.508 Z-36.025 I20. J0.
G1 X19.095 Z-36.031
G3 X24.095 Y66.508 Z-36.051 I0. J5.
G1 Y307.028 Z-36.661
G2 X33.828 Y321.415 Z-36.708 I15.5 J0.
G1 X36.91 Y322.651 Z-36.716
G1 Y346.992 Z-36.778
G1 X11.081 Y381.021 Z-36.886
G2 X7.011 Y393.113 Z-36.919 I15.931 J12.092
G1 Y796.374 Z-37.942
G2 X9.267 Y803.377 Z-37.961 I12. J0.
G2 X11.706 Y805.189 Z-37.969 I4.06 J-2.918
G1 X19.461 Y807.847 Z-37.99
G1 Y827.502 Z-38.04
G2 X29.461 Y837.502 Z-38.079 I10. J0.
G1 X36.91 Z-38.098
G2 X41.91 Y832.502 Z-38.118 I0. J-5.
G2 X46.91 Y837.502 Z-38.138 I5. J0.
G1 X54.874 Z-38.158
G2 X64.873 Y827.658 Z-38.198 I0. J-10.
G1 X69.033 Y561.346 Z-38.874
G1 X73.172 Y402.666 Z-39.276
G3 X73.937 Y399.081 Z-39.286 I9.997 J0.261
G1 X80.569 Y383.164 Z-39.329
G3 X82.639 Y380.03 Z-39.339 I9.232 J3.846
G1 X101.566 Y363.004 Z-39.403
G1 X131.778 Y354.6 Z-39.483
G2 X137.811 Y351.937 Z-39.5 I-0.797 J-9.968
G1 X142.085 Y348.552 Z-39.514
G2 X143.981 Y344.632 Z-39.525 I-3.104 J-3.92
G1 Y332.994 Z-39.555
G2 X143.303 Y328.691 Z-39.566 I-14. J0.001
G1 X133.547 Y298.483 Z-39.647
G2 X123.158 Y289.097 Z-39.684 I-13.322 J4.303
G1 X116.294 Y287.626 Z-39.702
G1 X116.203 Y284.735 Z-39.709
G1 X162.977 Y57.851 Z-40.297
G2 X163.08 Y56.844 Z-40.299 I-4.897 J-1.01
G1 X163.09 Y32.506 Z-40.361
G2 X143.09 Y12.498 Z-40.441 I-20. J-0.008
G1 X47.16 Z-40.684
G2 X42.16 Y17.498 Z-40.704 I0. J5.
G1 Y27.498 Z-40.729
G3 X41.66 Z-40.731 I-0.25 J0.
G1 Y17.498 Z-40.757
G2 X36.66 Y12.498 Z-40.777 I-5. J0.
G1 X1.91 Z-40.865
G2 X-3.09 Y17.498 Z-40.885 I0. J5.
G1 Y41.508 Z-40.945
G2 X16.911 Y61.508 Z-41.025 I20. J0.
G1 X19.095 Z-41.031
G3 X24.095 Y66.508 Z-41.051 I0. J5.
G1 Y307.028 Z-41.661
G2 X33.828 Y321.415 Z-41.708 I15.5 J0.
G1 X36.91 Y322.651 Z-41.716
G1 Y346.992 Z-41.778
G1 X11.081 Y381.021 Z-41.886
G2 X7.011 Y393.113 Z-41.919 I15.931 J12.092
G1 Y796.374 Z-42.942
G2 X9.267 Y803.377 Z-42.961 I12. J0.
G2 X11.706 Y805.189 Z-42.969 I4.06 J-2.918
G1 X19.461 Y807.847 Z-42.99
G1 Y827.502 Z-43.04
G2 X29.461 Y837.502 Z-43.079 I10. J0.
G1 X36.91 Z-43.098
G2 X41.91 Y832.502 Z-43.118 I0. J-5.
G2 X46.91 Y837.502 Z-43.138 I5. J0.
G1 X54.874 Z-43.158
G2 X64.873 Y827.658 Z-43.198 I0. J-10.
G1 X69.033 Y561.346 Z-43.874
G1 X73.172 Y402.666 Z-44.276
G3 X73.937 Y399.081 Z-44.286 I9.997 J0.261
G1 X80.569 Y383.164 Z-44.329
G3 X82.639 Y380.03 Z-44.339 I9.232 J3.846
G1 X101.566 Y363.004 Z-44.403
G1 X131.778 Y354.6 Z-44.483
G2 X137.811 Y351.937 Z-44.5 I-0.797 J-9.968
G1 X142.085 Y348.552 Z-44.514
G2 X143.981 Y344.632 Z-44.525 I-3.104 J-3.92
G1 Y332.994 Z-44.555
G2 X143.303 Y328.691 Z-44.566 I-14. J0.001
G1 X133.547 Y298.483 Z-44.647
G2 X123.158 Y289.097 Z-44.684 I-13.322 J4.303
G1 X116.294 Y287.626 Z-44.702
G1 X116.203 Y284.735 Z-44.709
G1 X162.977 Y57.851 Z-45.297
G2 X163.08 Y56.844 Z-45.299 I-4.897 J-1.01
G1 X163.09 Y32.506 Z-45.361
G2 X143.09 Y12.498 Z-45.441 I-20. J-0.008
G1 X47.16 Z-45.684
G2 X42.16 Y17.498 Z-45.704 I0. J5.
G1 Y27.498 Z-45.729
G3 X41.66 Z-45.731 I-0.25 J0.
G1 Y17.498 Z-45.757
G2 X36.66 Y12.498 Z-45.777 I-5. J0.
G1 X1.91 Z-45.865
G2 X-3.09 Y17.498 Z-45.885 I0. J5.
G1 Y41.508 Z-45.945
G2 X16.911 Y61.508 Z-46.025 I20. J0.
G1 X19.095 Z-46.031
G3 X24.095 Y66.508 Z-46.051 I0. J5.
G1 Y307.028 Z-46.661
G2 X33.828 Y321.415 Z-46.708 I15.5 J0.
G1 X36.91 Y322.651 Z-46.716
G1 Y346.992 Z-46.778
G1 X11.081 Y381.021 Z-46.886
G2 X7.011 Y393.113 Z-46.919 I15.931 J12.092
G1 Y796.374 Z-47.942
G2 X9.267 Y803.377 Z-47.961 I12. J0.
G2 X11.706 Y805.189 Z-47.969 I4.06 J-2.918
G1 X19.461 Y807.847 Z-47.99
G1 Y827.502 Z-48.04
G2 X29.461 Y837.502 Z-48.079 I10. J0.
G1 X36.91 Z-48.098
G2 X41.91 Y832.502 Z-48.118 I0. J-5.
G2 X46.91 Y837.502 Z-48.138 I5. J0.
G1 X54.874 Z-48.158
G2 X64.873 Y827.658 Z-48.198 I0. J-10.
G1 X69.033 Y561.346 Z-48.874
G1 X73.172 Y402.666 Z-49.276
G3 X73.937 Y399.081 Z-49.286 I9.997 J0.261
G1 X80.569 Y383.164 Z-49.329
G3 X82.639 Y380.03 Z-49.339 I9.232 J3.846
G1 X101.566 Y363.004 Z-49.403
G1 X131.778 Y354.6 Z-49.483
G2 X137.811 Y351.937 Z-49.5 I-0.797 J-9.968
G1 X142.085 Y348.552 Z-49.514
G2 X143.981 Y344.632 Z-49.525 I-3.104 J-3.92
G1 Y332.994 Z-49.555
G2 X143.303 Y328.691 Z-49.566 I-14. J0.001
G1 X133.547 Y298.483 Z-49.647
G2 X123.158 Y289.097 Z-49.684 I-13.322 J4.303
G1 X116.294 Y287.626 Z-49.702
G1 X116.203 Y284.735 Z-49.709
G1 X137.511 Y181.376 Z-49.977
G1 Z-49.5
G1 X141.55 Y161.787
G1 Z-50.027
G1 X162.977 Y57.851 Z-50.297
G2 X163.08 Y56.844 Z-50.299 I-4.897 J-1.01
G1 X163.09 Y32.506 Z-50.361
G2 X143.09 Y12.498 Z-50.441 I-20. J-0.008
G1 X47.16 Z-50.684
G2 X42.16 Y17.498 Z-50.704 I0. J5.
G1 Y27.498 Z-50.729
G3 X41.66 Z-50.731 I-0.25 J0.
G1 Y17.498 Z-50.757
G2 X36.66 Y12.498 Z-50.777 I-5. J0.
G1 X1.91 Z-50.865
G2 X-3.09 Y17.498 Z-50.885 I0. J5.
G1 Y41.508 Z-50.945
G2 X16.911 Y61.508 Z-51.025 I20. J0.
G1 X19.095 Z-51.031
G3 X24.095 Y66.508 Z-51.051 I0. J5.
G1 Y176.768 Z-51.33
G1 Z-49.5
G1 Y196.768
G1 Z-51.381
G1 Y307.028 Z-51.661
G2 X33.828 Y321.415 Z-51.708 I15.5 J0.
G1 X36.91 Y322.651 Z-51.716
G1 Y346.992 Z-51.778
G1 X11.081 Y381.021 Z-51.886
G2 X7.011 Y393.113 Z-51.919 I15.931 J12.092
G1 Y425. Z-52.
G1 Y483.928
G1 Z-49.5
G1 Y503.928
G1 Z-52.
G1 Y685.558
G1 Z-49.5
G1 Y705.558
G1 Z-52.
G1 Y796.374
G2 X9.267 Y803.377 I12. J0.
G2 X11.706 Y805.189 I4.06 J-2.918
G1 X19.461 Y807.847
G1 Y827.502
G2 X29.461 Y837.502 I10. J0.
G1 X36.91
G2 X41.91 Y832.502 I0. J-5.
G2 X46.91 Y837.502 I5. J0.
G1 X54.874
G2 X64.873 Y827.658 I0. J-10.
G1 X66.797 Y704.488
G1 Z-49.5
G1 X67.11 Y684.49
G1 Z-52.
G1 X69.033 Y561.346
G1 X73.172 Y402.666
G3 X73.937 Y399.081 I9.997 J0.261
G1 X80.569 Y383.164
G3 X82.639 Y380.03 I9.232 J3.846
G1 X101.566 Y363.004
G1 X131.778 Y354.6
G2 X137.811 Y351.937 I-0.797 J-9.968
G1 X142.085 Y348.552
G2 X143.981 Y344.632 I-3.104 J-3.92
G1 Y332.994
G2 X143.303 Y328.691 I-14. J0.001
G1 X133.547 Y298.483
G2 X123.158 Y289.097 I-13.322 J4.303
G1 X116.294 Y287.626
G1 X116.203 Y284.735
G1 X137.511 Y181.376
G1 Z-49.5
G1 X141.55 Y161.787
G1 Z-52.
G1 X162.977 Y57.851
G2 X163.08 Y56.844 I-4.897 J-1.01
G1 X163.09 Y32.506
G2 X143.09 Y12.498 I-20. J-0.008
G1 X47.16
G2 X42.16 Y17.498 I0. J5.
G1 Y27.498
G3 X41.66 I-0.25 J0.
G1 Y17.498
G2 X36.66 Y12.498 I-5. J0.
G1 X1.91
G2 X-3.09 Y17.498 I0. J5.
G1 Y41.508
G2 X16.911 Y61.508 I20. J0.
G1 X19.095
G3 X24.095 Y66.508 I0. J5.
G1 Y176.768
G1 Z-49.5
G1 Y196.768
G1 Z-52.
G1 Y307.028
G2 X33.828 Y321.415 I15.5 J0.
G1 X36.91 Y322.651
G1 Y346.992
G1 X11.081 Y381.021
G2 X7.011 Y393.113 I15.931 J12.092
G1 Y425.
G0 Z15.
M5 M9

G30
M30
%
